X: 1
T: Bluebird's Schottische, The
M: 4/4
L: 1/8
R: barndance
K: Dmaj
|: D>FA>B A2 f2 | D>FA>B A2 f2 | g2 (3fff (3eee (3ddd | (3ccc (3BBB (3ABA  (3GFE |
D>FA>B A2 f2 | D>FA>B A2 f2 | (3ggg (3fff e>AB>c |1 d2 f2 d2 (3GFE :|
2 d2 d2 d2 ||
|: cd |
e2 (3ef^g a>g a2 | c>^Bc>d e>^d e2 | (3BBB e2 (3BBB e2 | (3ccc (3BBB A2 (3Bcd |
e2 (3ef^g a>g a2 | c>^Bc>d e>^d e2 | e>a^g>f (3efe (3dcB |1A2 A2 A2 :|
2 A2 G2 (3FFF E2 ||
